new/mtf-wiki-square.svg

<?xml version="1.0" encoding="UTF-8" standalone="no"?>
<!-- Created with Inkscape (http://www.inkscape.org/) -->

<svg
   width="512"
   height="512"
   viewBox="0 0 135.46667 135.46667"
   version="1.1"
   id="svg5"
   xmlns="http://www.w3.org/2000/svg"
   xmlns:svg="http://www.w3.org/2000/svg">
  <defs
     id="defs2">
    <linearGradient
       id="linearGradient94608">
      <stop
         style="stop-color:#000000;stop-opacity:1;"
         offset="0"
         id="stop94606" />
    </linearGradient>
    <linearGradient
       id="linearGradient94187">
      <stop
         style="stop-color:#000000;stop-opacity:1;"
         offset="0"
         id="stop94185" />
    </linearGradient>
  </defs>
  <g
     id="layer1">
    <text
       xml:space="preserve"
       style="font-size:70.5556px;line-height:0.55;font-family:sans-serif;direction:rtl;stroke:#000000;stroke-opacity:1;stroke-width:0.26458334;stroke-miterlimit:4;stroke-dasharray:none;stroke-linejoin:miter;stroke-linecap:butt"
       x="125.08749"
       y="64.736526"
       id="text561"><tspan
         style="font-style:normal;font-variant:normal;font-weight:normal;font-stretch:normal;font-size:70.5556px;font-family:'Neutraface 2 Text';-inkscape-font-specification:'Neutraface 2 Text';text-align:center;letter-spacing:1.38377px;direction:ltr;text-anchor:middle;stroke:#000000;stroke-opacity:1;stroke-width:0.26458334;stroke-miterlimit:4;stroke-dasharray:none;stroke-linejoin:miter;stroke-linecap:butt"
         x="0"
         y="0"
         id="tspan36630"><tspan
           id="tspan33868"
           style="font-style:normal;font-variant:normal;font-weight:normal;font-stretch:normal;font-size:70.5556px;font-family:'Neutraface 2 Text';-inkscape-font-specification:'Neutraface 2 Text';text-align:center;direction:ltr;text-anchor:middle;stroke:#000000;stroke-opacity:1;stroke-width:0.26458334;stroke-miterlimit:4;stroke-dasharray:none;stroke-linejoin:miter;stroke-linecap:butt" /></tspan></text>
    <g
       aria-label="MtF
wiki"
       id="text40004"
       style="font-size:70.5556px;line-height:0.55;letter-spacing:0px;direction:rtl;stroke:#000000;stroke-opacity:1;stroke-width:0.26458334;stroke-miterlimit:4;stroke-dasharray:none;stroke-linejoin:miter;stroke-linecap:butt">
      <path
         d="m 10.758708,71.499794 h 7.126116 V 46.593666 c 0,-2.610557 -0.282223,-6.702782 -0.282223,-6.843893 0.211667,0.282222 2.469446,3.668891 4.233336,5.715003 l 12.065009,14.534455 h 0.846667 L 46.812621,45.464776 c 1.905001,-2.116668 4.162781,-5.573892 4.303892,-5.715003 0,0.141111 -0.282223,4.233336 -0.282223,6.843893 v 24.906128 h 7.126116 V 23.028095 H 57.184295 L 34.46539,49.839224 11.534819,23.028095 h -0.776111 z"
         style="font-family:'Neutraface 2 Text';-inkscape-font-specification:'Neutraface 2 Text';direction:ltr;fill:#5bcefa;fill-opacity:1;stroke:#000000;stroke-opacity:1;stroke-width:0.26458334;stroke-miterlimit:4;stroke-dasharray:none;stroke-linejoin:miter;stroke-linecap:butt"
         id="path89362" />
      <path
         id="path89364"
         style="font-family:'Neutraface 2 Text';-inkscape-font-specification:'Neutraface 2 Text';direction:ltr;fill-opacity:1;fill-rule:nonzero;fill:#fffffd;stroke:#000000;stroke-opacity:1;stroke-width:1;stroke-miterlimit:4;stroke-dasharray:none;stroke-linejoin:miter;stroke-linecap:butt"
         d="M 266.5293 100.82422 L 266.5293 144.02344 L 249.72852 144.02344 L 249.72852 166.69141 L 266.5293 166.69141 L 266.5293 218.1582 C 266.5293 248.02489 281.19634 258.69141 300.92969 258.69141 C 303.32077 258.69141 305.53897 258.55211 307.60352 258.29883 L 307.60352 422.29883 L 334.53711 422.29883 L 334.53711 389.23047 L 348.66992 374.56445 L 382.53711 422.29883 L 414.27148 422.29883 L 367.33789 356.96484 L 408.66992 310.29883 L 378.00391 310.29883 L 333.20312 360.69727 C 333.73646 354.83059 334.53711 347.89818 334.53711 340.96484 L 334.53711 229.76367 L 318.87891 229.76367 L 318.79492 229.625 C 318.74088 229.66922 318.67978 229.71876 318.625 229.76367 L 307.60352 229.76367 L 307.60352 235.27734 C 306.68412 235.41039 305.71065 235.49023 304.66211 235.49023 C 297.72877 235.49023 293.46289 231.75808 293.46289 218.69141 L 293.46289 166.69141 L 323.33008 166.69141 L 323.33008 144.02344 L 293.46289 144.02344 L 293.46289 100.82422 L 266.5293 100.82422 z "
         transform="scale(0.26458334)" />
      <path
         d="m 94.790298,71.499794 h 7.478892 V 52.167559 h 20.32002 V 45.535332 H 102.26919 V 30.083655 h 22.43668 V 23.521984 H 94.790298 Z"
         style="font-family:'Neutraface 2 Text';-inkscape-font-specification:'Neutraface 2 Text';direction:ltr;fill:#f5a9b8;fill-opacity:1;stroke:#000000;stroke-opacity:1;stroke-width:0.26458334;stroke-miterlimit:4;stroke-dasharray:none;stroke-linejoin:miter;stroke-linecap:butt"
         id="path89366" />
      <path
         d="m 23.884269,112.43858 h 0.776112 l 7.620005,-14.393342 c 0.917223,-1.76389 1.76389,-4.65667 1.834446,-4.938892 0.07055,0.282222 0.705556,3.175002 1.693334,4.938892 l 7.337783,14.393342 H 43.92206 L 56.904291,82.099672 H 49.778175 L 44.909839,94.79968 c -0.846667,2.187224 -1.76389,5.57389 -1.76389,5.57389 0,0 -1.058334,-3.457222 -2.116668,-5.57389 L 34.46761,81.535227 h -0.705556 l -6.350005,12.700008 c -1.128889,2.187224 -2.046112,5.573893 -2.046112,5.573893 0,0 -0.917223,-3.316113 -1.76389,-5.573893 L 18.874821,82.099672 h -7.902227 z"
         style="font-family:'Neutraface 2 Text';-inkscape-font-specification:'Neutraface 2 Text';letter-spacing:1.05833px;direction:ltr;fill:#5bcefa;fill-opacity:1;stroke:#000000;stroke-opacity:1;stroke-width:0.26458334;stroke-miterlimit:4;stroke-dasharray:none;stroke-linejoin:miter;stroke-linecap:butt"
         id="path89368" />
      <path
         d="m 67.487591,75.326334 c 2.540002,0 4.727226,-1.905001 4.727226,-4.727226 0,-2.681112 -2.187224,-4.656669 -4.727226,-4.656669 -2.540001,0 -4.727225,1.975557 -4.727225,4.656669 0,2.822225 2.187224,4.727226 4.727225,4.727226 z m -3.598335,36.406696 h 7.196671 V 82.099672 h -7.196671 z"
         style="font-family:'Neutraface 2 Text';-inkscape-font-specification:'Neutraface 2 Text';letter-spacing:1.05833px;direction:ltr;fill:#f5a9b8;fill-opacity:1;stroke:#000000;stroke-opacity:1;stroke-width:0.26458334;stroke-miterlimit:4;stroke-dasharray:none;stroke-linejoin:miter;stroke-linecap:butt"
         id="path89370" />
      <path
         style="font-family:'Neutraface 2 Text';-inkscape-font-specification:'Neutraface 2 Text';letter-spacing:1.05833px;direction:ltr;fill:#f5a9b8;fill-opacity:1;stroke:#000000;stroke-opacity:1;stroke-width:0.26458334;stroke-miterlimit:4;stroke-dasharray:none;stroke-linejoin:miter;stroke-linecap:butt"
         d="m 116.3824,111.73303 h 7.19667 V 82.099672 h -7.19667 z"
         id="path92085" />
      <path
         style="font-family:'Neutraface 2 Text';-inkscape-font-specification:'Neutraface 2 Text';letter-spacing:1.05833px;direction:ltr;fill-opacity:1;fill-rule:nonzero;fill:#fffffd;stroke:#000000;stroke-opacity:1;stroke-width:0.26458334;stroke-miterlimit:4;stroke-dasharray:none;stroke-linejoin:miter;stroke-linecap:butt"
         d="m 119.98074,75.326334 c 2.54,0 4.72722,-1.905001 4.72722,-4.727226 0,-2.681112 -2.18722,-4.656669 -4.72722,-4.656669 -2.54001,0 -4.72723,1.975557 -4.72723,4.656669 0,2.822225 2.18722,4.727226 4.72723,4.727226 z"
         id="path89374" />
    </g>
  </g>
</svg>

<?xml version="1.0" encoding="UTF-8"?>
<svg width="512" height="512" version="1.1" viewBox="0 0 135.47 135.47" xmlns="http://www.w3.org/2000/svg">
 <g stroke-width=".26458">
 <g direction="ltr" stroke="#000" aria-label="MtF wiki">
   <path d="m10.759 71.5h7.1261v-24.906c0-2.6106-.28222-6.7028-.28222-6.8439.21167.28222 2.4694 3.6689 4.2333 5.715l12.065 14.534h.84667l12.065-14.534c1.905-2.1167 4.1628-5.5739 4.3039-5.715 0 .14111-.28222 4.2333-.28222 6.8439v24.906h7.1261v-48.472h-.77611l-22.719 26.811-22.931-26.811h-.77611z" direction="ltr" fill="#5bcefa" stroke-width=".26458"/>
   <path transform="scale(.26458)" d="m266.53 100.82v43.199h-16.801v22.668h16.801v51.467c0 29.867 14.667 40.533 34.4 40.533 2.3911 0 4.6093-.1393 6.6738-.39258v164h26.934v-33.068l14.133-14.666 33.867 47.734h31.734l-46.934-65.334 41.332-46.666h-30.666l-44.801 50.398c.53334-5.8667 1.334-12.799 1.334-19.732v-111.2h-15.658l-.08399-.13867c-.05404.04422-.11514.09376-.16992.13867h-11.021v5.5137c-.9194.13305-1.8929.21289-2.9414.21289-6.9333 0-11.199-3.7322-11.199-16.799v-52h29.867v-22.668h-29.867v-43.199h-26.934z" direction="ltr" fill="#fffffd" stroke-width="1"/>
   <g stroke-width=".26458">
    <path d="m94.79 71.5h7.4789v-19.332h20.32v-6.6322h-20.32v-15.452h22.437v-6.5617h-29.916z" direction="ltr" fill="#f5a9b8"/>
    <path d="m23.884 112.44h.77611l7.62-14.393c.91722-1.7639 1.7639-4.6567 1.8344-4.9389.07055.28222.70556 3.175 1.6933 4.9389l7.3378 14.393h.77611l12.982-30.339h-7.1261l-4.8683 12.7c-.84667 2.1872-1.7639 5.5739-1.7639 5.5739s-1.0583-3.4572-2.1167-5.5739l-6.5617-13.264h-.70556l-6.35 12.7c-1.1289 2.1872-2.0461 5.5739-2.0461 5.5739s-.91722-3.3161-1.7639-5.5739l-4.7272-12.136h-7.9022z" direction="ltr" fill="#5bcefa"/>
    <path d="m67.488 75.326c2.54 0 4.7272-1.905 4.7272-4.7272 0-2.6811-2.1872-4.6567-4.7272-4.6567-2.54 0-4.7272 1.9756-4.7272 4.6567 0 2.8222 2.1872 4.7272 4.7272 4.7272zm-3.5983 36.407h7.1967v-29.633h-7.1967z" direction="ltr" fill="#f5a9b8"/>
    <path d="m116.38 111.73h7.1967v-29.633h-7.1967z" direction="ltr" fill="#f5a9b8"/>
    <path d="m119.98 75.326c2.54 0 4.7272-1.905 4.7272-4.7272 0-2.6811-2.1872-4.6567-4.7272-4.6567-2.54 0-4.7272 1.9756-4.7272 4.6567 0 2.8222 2.1872 4.7272 4.7272 4.7272z" direction="ltr" fill="#fffffd"/>
   </g>
  </g>
 </g>
</svg>
